!!!!SEGMENT: pl-kk--kk-i-362--004_anonim--pleni-sunt-caeli.krn
!!!cenid: 17xx:2057
!!!COM: Anonim
!!!COM-rismID: pe30004985
!!!CDT:
!!!CNT:
!!!OTL: Pleni sunt caeli
!!!PDT:
!!!AGN: Sacred
!!!YEC: Copyright 2022 Narodowy Instytut Fryderyka Chopina (https://polishscores.org)
!!!YEM: License CC-BY-4.0 (https://creativecommons.org/licenses/by/4.0)
!!!SMS-siglum: PL-Kk
!!!SMS-shelfmark: Kk.I.362
!!!SMS-shelfwork: 004 W
!!!SMS-variant:
!!!SMS-altvar:
!!!NIFC-rismSourceID: 1001144502
!!!NIFC-rismChildID: 1001144502
!!!NIFC-islandoraID: pl-kk:5990
!!!URL-pdf-islandora: https://repozytorium.nifc.pl/islandora/object/pl-kk%3A5990/datastream/PDF/view
!!!URL-scan: https://polish.musicsources.pl/pl/lokalizacje/galeria/rekopisy/5977 @EN{Scan on Polish Music Sources Website} @PL{Skany w portalu Dziedzictwo Muzyki Polskiej w otwartym dostępie}
!!!IIIF:
!!!ONB-nifc: UWAGA: utwory w zbiorze: 1. Ave Hierarchia, 2. Ave Maria, 3. Sanctus sanctus, 4. Pleni sunt caeli
!!!AIN: 1 empty
!!!key:
**kern	**text
*staff1	*
*Iempty	*
*I"[Basso]	*
*I'[B.]	*
*clefF4	*
*k[]	*
*F:	*
*M2/1	*
*met(c|)	*
=1-	=1-
!LO:TX:t=P:problem=brak znaków w pierwszym systemie	!
1F	Ple-
1C	-ni
=2-	=2-
1D	sunt
2.C/	c(a)e-
4BB-y/	.
=3-	=3-
4AA/	.
4GG/	.
4.AA/	.
8GG/	-li
2FF,/	.
*2\right	*
2F\	et
=4-	=4-
2En\	.
!LO:TX:t=P:problem=kreska pseudotaktowa	!
2C/	Ter-
2G\	.
2GG/	.
=5-	=5-
4C/	.
4D/	.
4E/	.
!LO:TX:t=P:problem=kreska pseudotaktowa	!
4F/	.
4G\	.
4A\	.
2.B-y\	.
=6-	=6-
.	.
4A\	.
!LO:TX:t=P:problem=kreska pseudotaktowa	!
2G\	-ra
!LO:TX:t=P:problem=kreska pseudotaktowa	!
1F,	.
=7-	=7-
2.F\	glo-
4E\	-ri-
2D,\	-a
!LO:TX:t=P:problem=kreska pseudotaktowa	!
!LO:T:b	!
[2E\	glo-
!!LO:LB:g=original
=8-	=8-
*k[b-]	*
*F:	*
!LO:TX:t=P:problem=znaki przykluczowe [b-b-]	!
!LO:TX:t=P:problem=brak zakończenia łuku/ligatury	!
!LO:N:xstem:cue	!
4E]y	.
4E\	-ri-
!LO:TX:t=P:problem=kreska pseudotaktowa	!
!LO:T:b	!
[2F\	-a
!LO:N:xstem:cue	!
4F]	.
4E\	.
2.D/	/glo-
=9-	=9-
.	.
4C/	.
4BB-/	-ri-
4AA/	.
2GG,/	-a/
1G\	glo-
=10-	=10-
.	.
2F#X\	.
4G\	.
8GG/L	.
8AA/J	.
4BB-/	.
!LO:TX:t=P:problem=kreska pseudotaktowa	!
4GG/	.
=11-	=11-
4D\	.
4E\	-ri-
2Fny\	-a
1C	tu-
=12-	=12-
!LO:N:vis=0	!
1FF;	-a.
=||	=||
*M2/1	*
*met(c|)	*
1F	O-
=13-	=13-
2E\	-san-
!LO:TX:t=P:problem=kreska pseudotaktowa	!
2C/	-na
2.G\	in
4F\	ex-
=14-	=14-
4E\	-cel-
4D\	.
4C\	.
4BB-\	.
2AA/	.
4A\	.
4G\	.
=15-	=15-
!LO:TX:t=P:problem=ligatura c.o.p.	!
*lig	*
2F\	-sis
2G\	.
*Xlig	*
1C,	.
!!LO:LB:g=original
=16-	=16-
2.D/	in
4C/	ex-
4BB-/	-cel-
4C/	.
4D/	.
4E/	.
=17-	=17-
2F\	.
1C	.
1AA/	.
=18-	=18-
.	.
!LO:TX:t=P:problem=kreska pseudotaktowa	!
2FF/	.
2.BB-/	.
4AA/	.
=19-	=19-
!LO:TX:t=P:problem=kreska pseudotaktowa	!
1GG	.
2.AA/	.
4BB-/	.
=20-	=20-
2.C/	.
!LO:TX:t=P:problem=kreska pseudotaktowa	!
4BB-/	.
4AA/	.
4GG/	.
4AA/	.
4FF/	.
=21-	=21-
1C	-sis.
!LO:N:vis=0	!
1FF;	.
!!LO:LB:g=original
=22||	=22||
*M2/1	*
*met(c|)	*
1r	.
1r	.
=23-	=23-
1r	.
1r	.
=24-	=24-
1F	Be-
2E\	-ne-
2.C/	-di-
=25-	=25-
.	.
4D/	.
4E/	.
!LO:TX:t=P:problem=kreska pseudotaktowa	!
4C/	.
0G	.
=26-	=26-
.	.
!LO:TX:t=P:problem=kreska pseudotaktowa	!
1F,	-ctus
=27-	=27-
1r	.
1E	qui
=28-	=28-
2.G\	ve-
4F\	.
4E\	.
4D\	.
!LO:TX:t=P:problem=kreska pseudotaktowa	!
2C/	.
=29-	=29-
4G\	.
4A\	.
4B-\	.
4A\	.
4G\	.
4F\	.
2G\	-nit
=30-	=30-
!LO:TX:t=P:problem=kreska pseudotaktowa	!
1F	.
1r	.
=31-	=31-
1r	.
!LO:TX:t=P:problem=kreska pseudotaktowa	!
1r	.
!!LO:LB:g=original
=32-	=32-
2FF/	in
2.F\	No-
4E\	-mi-
1D\	-ne
=33-	=33-
.	.
2BB-,/	.
2GG/	in
1G\	No-
=34-	=34-
.	.
2F\	-mi-
2G\	-ne
!LO:TX:t=P:problem=kreska pseudotaktowa	!
2GG/	Do-
=35-	=35-
4D\	.
4E\	.
2F\	.
1.C	-mi-
=36-	=36-
.	.
2C/	-ni.
!LO:N:vis=0	!
!LO:TX:b:i:t=Oſanna da Capo	!
1FF;	.
!!LO:PB:g=original
=||	=||
*-	*-
!!!ENC: Marta Chmielewska
!!!END: 2021-03-08
!!!ENC: Mateusz Solarz
!!!END: 2021-02-18
